svg/construction_worker_positive.svg

<?xml version="1.0" encoding="UTF-8" standalone="no"?>
<!-- Created with Inkscape (http://www.inkscape.org/) -->
<svg id="svg8" xmlns:rdf="http://www.w3.org/1999/02/22-rdf-syntax-ns#" xmlns="http://www.w3.org/2000/svg" xmlns:osb="http://www.openswatchbook.org/uri/2009/osb" height="48" width="48" version="1.1" xmlns:cc="http://creativecommons.org/ns#" viewBox="0 0 12.7 12.7" xmlns:dc="http://purl.org/dc/elements/1.1/">
 <title id="title4753">UIO-icon</title>
 <metadata id="metadata5">
  <rdf:RDF>
   <cc:Work rdf:about="">
    <dc:format>image/svg+xml</dc:format>
    <dc:type rdf:resource="http://purl.org/dc/dcmitype/StillImage"/>
    <dc:title>UIO-icon</dc:title>
    <dc:creator>
     <cc:Agent>
      <dc:title>Joaquín Urbano</dc:title>
     </cc:Agent>
    </dc:creator>
    <dc:rights>
     <cc:Agent>
      <dc:title>GPL</dc:title>
     </cc:Agent>
    </dc:rights>
   </cc:Work>
  </rdf:RDF>
 </metadata>
 <g id="layer1" fill="#333" transform="translate(0,-284.3)">
  <path id="rect9008" d="m23.5 4.9727c-2.6956 0-2.7562 0.071705-2.2305 2.6016 0.36088 1.737 0.36504 2.0102 0.029297 2.2871-0.579 0.4766-0.861 0.0841-1.299-1.7989-0.214-0.9226-0.426-1.7037-0.469-1.7402-0.205-0.1691-2.338 1.352-2.992 2.1347-0.8581 1.027-1.5762 2.6499-1.5762 3.5547 0 0.46638-0.12297 0.63281-0.4668 0.63281-0.96254 0-1.4706 1.0878-0.77539 1.6602 0.28514 0.34842 1.35 0.60364 2.8164 0.7832v4.787c0 2.0844 0.5155 4.1544 1.9922 5.084 2.09 1.3157 3.1271 2.1809 4.9668 2.2383 1.2599 0.00378 2.871-1.135 4.6094-2.2227 1.5631-0.97807 2.3613-3.0259 2.3613-5.0996-0.011169-1.627-0.030429-3.2539-0.046875-4.8809 1.3829-0.1767 2.4362-0.4063 2.8613-0.68945 0.69516-0.57238 0.1891-1.6602-0.77344-1.6602-0.34383 0-0.46875-0.16653-0.46875-0.63281 0-1.6841-1.6149-4.0564-3.4805-5.1133l-1.135-0.6441-0.135 0.584c-0.075 0.3216-0.267 1.1348-0.426 1.8066-0.315 1.3335-0.63 1.6515-1.181 1.1973-0.305-0.2513-0.297-0.5878 0.052-2.2676 0.526-2.53 0.464-2.6015-2.232-2.6015zm6.4062 10.082c0.016163 1.5108 0.031837 3.0036 0.041016 4.5156 0 1.8753-0.63337 4.0318-2.0469 4.916-1.572 0.98366-3.2259 2.1971-4.3652 2.1934-1.6637-0.047622-2.9459-1.0229-4.8359-2.2129-1.335-0.841-1.665-2.988-1.66-4.873l0.011719-4.4414c3.5917 0.36911 9.2033 0.30966 12.855-0.097656zm-9.4141 0.88477c-0.43898 0.00011339-0.79482 0.35601-0.79492 0.79492 0.00009828 0.43895 0.35596 0.79481 0.79492 0.79492 0.43898-0.00011339 0.79482-0.35604 0.79492-0.79492-0.00009828-0.43899-0.35596-0.79481-0.79492-0.79492zm5.9688 0c-0.43898 0.00011339-0.79483 0.35601-0.79492 0.79492 0.0000945 0.43895 0.35592 0.79481 0.79492 0.79492 0.43898-0.00011339 0.79482-0.35604 0.79492-0.79492-0.00009828-0.43899-0.35596-0.79481-0.79492-0.79492zm-3.035 3.669c-0.37814 0.00378-0.67004 0.070579-0.66602 0.14844 0.001999 0.080882 0.32239 0.14686 0.7168 0.14648 0.39441 0.00003773 0.71477-0.065602 0.7168-0.14648 0.003201-0.082016-0.31865-0.14844-0.7168-0.14844-0.017008-0.00011339-0.034-0.00011339-0.050781 0zm2.9551 2.2617c-0.00007561 0.00041575-0.011341 0.001424-0.011719 0.001953 0.00011717 0.00037789 0.011719-0.00041575 0.011719 0zm-0.011719 0.001953c-0.015874-0.053669-1.2268 0.071172-2.7285 0.2832-0.064441 0.007559-0.12896 0.019785-0.19336 0.027344-1.4369 0.2075-2.5416 0.40995-2.5215 0.46094 0.026079 0.052158 1.2485-0.077409 2.7422-0.28906 1.4821-0.21014 2.6733-0.42369 2.7012-0.48242zm-20.656 1.34v5.8125h7.2422v-5.8131zm0 6.3262v5.8086h1.2422v-5.809h-1.2324zm1.7559 0v5.8086h12.345v-5.809zm12.859 0v5.8086h12.467v-5.809zm-14.615 6.322v5.7051h7.2422v-5.7051zm7.7559 0v5.7051h12.342v-5.7051zm12.855 0v5.7051h12.465v-5.7051h-5.4805l-0.51367 0.001953v-0.001953zm12.979 0v5.7051h4.4668v-5.7051h-0.009766z" fill-rule="evenodd" transform="matrix(.26458 0 0 .26458 0 284.3)"/>
 </g>
</svg>

<svg width="48" height="48" viewBox="0 0 48 48" fill="none" xmlns="http://www.w3.org/2000/svg">
<path fill-rule="evenodd" clip-rule="evenodd" d="M23.4997 4.97266C20.8042 4.97266 20.7436 5.04436 21.2693 7.57422C21.6301 9.3112 21.6343 9.5844 21.2986 9.86129C20.7196 10.3379 20.4376 9.94539 19.9996 8.06242C19.7856 7.13983 19.5736 6.35874 19.5306 6.32224C19.3256 6.15314 17.1926 7.67422 16.5386 8.45691C15.6805 9.4839 14.9624 11.1068 14.9624 12.0116C14.9624 12.4779 14.8395 12.6444 14.4956 12.6444C13.5331 12.6444 13.0251 13.7322 13.7203 14.3045C14.0054 14.653 15.0702 14.9082 16.5366 15.0877V19.8747C16.5366 21.9591 17.0521 24.029 18.5288 24.9586C20.6188 26.2743 21.6559 27.1395 23.4955 27.1969C24.7554 27.2007 26.3665 26.0619 28.1049 24.9742C29.668 23.9962 30.4661 21.9484 30.4661 19.8747C30.455 18.2477 30.4357 16.6208 30.4193 14.9938C31.8022 14.8171 32.8554 14.5875 33.2805 14.3044C33.9757 13.732 33.4696 12.6442 32.5071 12.6442C32.1633 12.6442 32.0384 12.4777 32.0384 12.0114C32.0384 10.3273 30.4235 7.95507 28.5579 6.89818L27.4229 6.25409L27.2879 6.83808C27.2129 7.15968 27.0209 7.97287 26.8619 8.64466C26.5469 9.97814 26.2319 10.2961 25.6809 9.84194C25.3759 9.59065 25.3839 9.25415 25.7329 7.57437C26.2589 5.04441 26.1969 4.97291 23.501 4.97291L23.4997 4.97266ZM29.9058 15.0545C29.922 16.5653 29.9377 18.0581 29.9469 19.5701C29.9469 21.4453 29.3135 23.6018 27.9 24.486C26.328 25.4697 24.6741 26.6831 23.5348 26.6794C21.8712 26.6318 20.589 25.6565 18.699 24.4665C17.364 23.6255 17.034 21.4785 17.039 19.5936L17.0507 15.1522C20.6424 15.5213 26.2539 15.4619 29.9056 15.0546L29.9058 15.0545ZM20.4919 15.9393C20.0529 15.9394 19.6971 16.2953 19.697 16.7342C19.6971 17.1731 20.0529 17.529 20.4919 17.5291C20.9308 17.529 21.2867 17.1731 21.2868 16.7342C21.2867 16.2952 20.9308 15.9394 20.4919 15.9393ZM26.4606 15.9393C26.0216 15.9394 25.6658 16.2953 25.6657 16.7342C25.6658 17.1731 26.0216 17.529 26.4606 17.5291C26.8996 17.529 27.2554 17.1731 27.2555 16.7342C27.2554 16.2952 26.8995 15.9394 26.4606 15.9393ZM23.4256 19.6082C23.0475 19.612 22.7556 19.6788 22.7596 19.7567C22.7616 19.8376 23.082 19.9035 23.4764 19.9032C23.8708 19.9032 24.1912 19.8376 24.1932 19.7567C24.1964 19.6747 23.8746 19.6082 23.4764 19.6082C23.4594 19.6081 23.4424 19.6081 23.4256 19.6082ZM26.3807 21.8699C26.3806 21.8703 26.3694 21.8713 26.369 21.8719C26.3691 21.8722 26.3807 21.8715 26.3807 21.8719V21.8699ZM26.369 21.8719C26.3531 21.8182 25.1422 21.943 23.6405 22.1551C23.5761 22.1626 23.5116 22.1748 23.4472 22.1824C22.0103 22.3899 20.9056 22.5924 20.9257 22.6433C20.9518 22.6955 22.1742 22.5659 23.6678 22.3543C25.1499 22.1441 26.3411 21.9306 26.369 21.8719ZM5.71323 23.2119V29.0243H12.9553V23.2112L5.71323 23.2119ZM5.71323 29.538V35.3465H6.95542V29.5376H5.72303L5.71323 29.538ZM7.46911 29.538V35.3465H19.814V29.5376L7.46911 29.538ZM20.328 29.538V35.3465H32.7948V29.5376L20.328 29.538ZM5.71313 35.8599V41.5649H12.9552V35.8599H5.71313ZM13.4689 35.8599V41.5649H25.8108V35.8599H13.4689ZM26.3238 35.8599V41.5649H38.7886V35.8599H33.3082L32.7945 35.8618V35.8599H26.3238ZM39.3026 35.8599V41.5649H43.7694V35.8599H43.7596H39.3026Z" fill="#333333"/>
</svg>
